X: 6930
T: Cherokee Shuffle
R: hornpipe
M: 4/4
K: Amajor
EF|:"A"A2 AB cBcB|ABAF E2 EF|A2 AB cBce|"F#m" f6 fg|
"D"ab a2 "F#m"fa f2|"A"efed cBAB|cBAc "E"BAGB|1 ."A"A6 EF:|2 ."A"A6 ce||
|:"D"f^efg abaf|"A"efec e2 ce|"D"f^efg abab|"A"c'6 ce|
"D"f^efg abaf|"A"eafe cBAB|cBAc BAGA|"F#m"F2 FF F2 F^E|
"E"EFGA BAGB|1 ."A"A2 AA A2 ce:|2 ."A"A2 AA A4||

